X:150
T:Steirer
C:traditionell
R:Steirer
A:Bad Ischl, Salzkammergut
B:"Pfeifermusik aus Bad Ischl", Lois Blamberger, 3. Auflage, Bad Ischl 1990
S:im buch mit der Angabe: aus der Sammlung vom Blamberger Lois
N:im buch in D, nr. 3/3
Z:abc transcription Simon Wascher
M:3/4
L:1/8
K:D
V:1
GA |\
(Bd) d2 (Bd) | (cd) d2 (AB) | (cd) d2 (cd) | (Bd) d2 (GA) |\
(Bd) d2 (Bd) | (cd) d2 (AB | cd fe cF) | G2 z2 :|
V:2
Bc |\
(db) g2 (dg) | (df) f2 (cd) | (ea) f2 (df) | (dg) g2 (Bc) |\
(db) g2 (dg) | (df) f2 (cd | df ag ec) | B2 z2 :|
